!!!ONB: MCCC : IFC0101_01 : Extracted Monophonic Melody
!!!COM: Chopin, Frédéric
!!!OPR: Scherzo No.2
!!!OMV: 1
!!!SCT: Op.31
!!!ODT: 1837///
**kern
*thru
*staff1
*Ipiano
*>A
*clefG2
*k[]
*C:
*M3/4
*MM168
=1
8e
8f
4g
4a
=2
8g
8e
4c
4d
=3
8e
8f
4g
4a
=4
8g
8e
4g
8b
8cc
=5
8dd
8dd
4dd
8g
8b
=6
8cc
8dd
8ee
8ff
8gg
8gg#
=7
8aa
8aa
4aa
8gg
8dd
=8
8ff
8ff
4ff
4ee
=9
8dd
8dd
4dd
8g
8b
=10
8cc
8dd
8ee
8ff
8gg
8ccc
=11
8.bb
16aa
8ff
8dd
8b
8g
=12
12cc
12dd
12ee
4cc
8b
8cc
=13
8dd
8dd
4dd
8g
8b
=14
8cc
8dd
8ee
8ff
8gg
8gg#
=15
8aa
8aa
4aa
8gg
8dd
=16
8ff
8ff
4ff
4ee
=17
8dd
8dd
4dd
8g
8b
=18
8cc
8dd
8ee
8ff
8gg
8ccc
=19
8.bb
16aa
8ff
8dd
8b
8g
=20
12cc
12dd
12ee
4cc
8b
8cc
=21
*>B
8.dd
16dd
4b
4gg
=22
8.dd
16dd
4g
8b
8cc
=23
8.dd
16dd
4b
4gg
=24
8.dd
16dd
4dd
8dd
8cc#
=25
8ee
8dd
4g
8a
8b
=26
8cc
8dd
8ee
8ff
8gg
8gg#
=27
8aa
8aa
4aa
8gg
8dd
=28
8ff
8ff
4ff
4ee
=29
8dd
8dd
4dd
8g
8b
=30
8cc
8dd
8ee
8ff
8gg
8ccc
=31
8.bb
16aa
8ff
8dd
8b
8g
=32
*>B1
12cc
12dd
12ee
4cc
8b
8cc
=33
*>B
8.dd
16dd
4b
4gg
=34
8.dd
16dd
4g
8b
8cc
=35
8.dd
16dd
4b
4gg
=36
8.dd
16dd
4dd
8dd
8cc#
=37
8ee
8dd
4g
8a
8b
=38
8cc
8dd
8ee
8ff
8gg
8gg#
=39
8aa
8aa
4aa
8gg
8dd
=40
8ff
8ff
4ff
4ee
=41
8dd
8dd
4dd
8g
8b
=42
8cc
8dd
8ee
8ff
8gg
8ccc
=43
8.bb
16aa
8ff
8dd
8b
8g
=44
*>B2
12cc
12dd
12ee
4cc
8r
8cc
=45
*>C
*k[b-]
8ccc
8r
4.gg
8aa
=46
8.ff
16cc
4.ccc
8ff#
=47
8gg
8aa
4.bb-
8bb
=48
8ddd
16r
16ccc
4fff
4cc
=49
8ccc
8r
4.gg
8aa
=50
8ff
8cc
4.ff
8ee
=51
8dd
8ee
8ff
8ee
8ff
8ff#
=52
8aa
8gg
4ee
4dd
=53
8ccc
8r
4.gg
8aa
=54
8.ff
16cc
4.ccc
8ff#
=55
8gg
8aa
4.bb-
8bb
=56
8ddd
16r
16ccc
4fff
4cc
=57
8ccc
8r
4.gg
8aa
=58
4ff
4.aa
8gg
=59
8cc
8dd-
8cc
8dd
8cc
8ee
=60
4ff
4fff
4r
=61
*k[]
8e
8f
4g
4a
=62
8g
8e
4c
4d
=63
8e
8f
4g
4a
=64
8g
8e
4g
8b
8cc
=65
8dd
8dd
4dd
8g
8b
=66
8cc
8dd
8ee
8ff
8gg
8gg#
=67
8aa
8aa
4aa
8gg
8dd
=68
8ff
8ff
4ff
4ee
=69
8dd
8dd
4dd
8g
8b
=70
8cc
8dd
8ee
8ff
8gg
8ccc
=71
8.bb
16aa
8ff
8dd
8b
8g
=72
12cc
12dd
12ee
4cc
8b
8cc
=73
8.dd
16dd
4b
4gg
=74
8.dd
16dd
4g
8b
8cc
=75
8.dd
16dd
4b
4gg
=76
8.dd
16dd
4dd
8dd
8cc#
=77
8ee
8dd
4g
8a
8b
=78
8cc
8dd
8ee
8ff
8gg
8gg#
=79
8aa
8aa
4aa
8gg
8dd
=80
8ff
8ff
4ff
4ee
=81
8dd
8dd
4dd
8g
8b
=82
8cc
8dd
8ee
8ff
8gg
8ccc
=83
8.bb
16aa
8ff
8dd
8b
8g
=84
12cc
12dd
12ee
4cc
4r
==
*-
